X:77
T:Sweet Home. JGi.077
O:Tealby,Lincolnshire
N:version of Home Sweet Home. No final bar line in MS.
M:6/8
L:1/8
Q:3/8=60
S:Joshua Gibbons MS,1823,Tealby,Lincs.
R:air
Z:VMP/R.Greig, 2009
K:G
G>A|B2c >cd2|B >d c >B c >A|B4(G>A)|B2c >cd2|B >d (cB) c >A|G4z2|
z2(3def|g2f >e {e}d|B >d c >B c >A|B3(3def|g2 f >e {e}d2|
B >d c >B c >A|G6|B6|c6|F4A2|G4d >f|g2f.e {e}d2|B >d c>B c >A|G4|]

